packages/tokens/icons/roadmap/size32Px.svg

<svg viewBox="0 0 32 32" fill="none" xmlns="http://www.w3.org/2000/svg" width="1em" height="1em"><path d="M5 27L14.5 17.5" stroke="currentColor" stroke-linecap="round" stroke-linejoin="round" stroke-dasharray="2 2"/><path d="M10 16L15.9999 16L15.9999 22" stroke="currentColor" stroke-linecap="round" stroke-linejoin="round"/><path d="M25.2992 5.5716L24.8499 5.79087L25.2992 5.57159L23.9287 2.76296C23.5512 1.9894 22.4488 1.9894 22.0713 2.76296L20.7008 5.57159C20.6961 5.58116 20.6871 5.58792 20.6767 5.58979L16.9893 6.24688C16.1415 6.39794 15.8396 7.45876 16.4807 8.03357L18.9453 10.2432C18.9539 10.2509 18.9579 10.2624 18.9558 10.2738L18.3204 13.855C18.1711 14.6961 19.0488 15.3447 19.809 14.9552L22.9848 13.3282C22.9943 13.3233 23.0057 13.3233 23.0152 13.3282L26.191 14.9552C26.9512 15.3447 27.8289 14.6961 27.6796 13.855L27.0442 10.2738C27.0421 10.2624 27.0461 10.2509 27.0547 10.2432L29.5193 8.03357C30.1604 7.45876 29.8585 6.39794 29.0107 6.24688L25.3233 5.58979C25.3129 5.58792 25.3039 5.58116 25.2992 5.5716Z" stroke="currentColor"/></svg>

<svg xmlns="http://www.w3.org/2000/svg" fill="none" viewBox="0 0 32 32" width="1em" height="1em"><path stroke="currentColor" stroke-dasharray="2 2" stroke-linecap="round" stroke-linejoin="round" d="m5 27 9.5-9.5"/><path stroke="currentColor" stroke-linecap="round" stroke-linejoin="round" d="M10 16h6v6"/><path stroke="currentColor" d="m25.3 5.572-.45.219.45-.22-1.371-2.808a1.033 1.033 0 0 0-1.858 0l-1.37 2.809a.034.034 0 0 1-.024.018l-3.688.657a1.033 1.033 0 0 0-.508 1.787l2.464 2.21a.028.028 0 0 1 .01.03l-.635 3.581a1.033 1.033 0 0 0 1.489 1.1l3.176-1.627a.033.033 0 0 1 .03 0l3.176 1.627c.76.39 1.638-.259 1.489-1.1l-.636-3.581a.033.033 0 0 1 .01-.03l2.465-2.21a1.033 1.033 0 0 0-.508-1.787l-3.688-.657a.034.034 0 0 1-.024-.018Z"/></svg>
